X: 14734
T: Gan Ainm
R: polka
M: 2/4
K: Gmajor
G/F/G/B/ d/e/d/B/|AE E2|D/F/E/G/ F/A/d/c/|BG G2|
G/F/G/B/ d/e/d/B/|AE E2|D/F/E/G/ F/A/d/c/|BG G2:|:
G/F/G/A/ B/c/B/A/|GD/E/ D2|A/^G/A/B/ c/d/c/B/|AE/F/ E2|
G/F/G/A/ B/d/c/B/|A/^G/A/B/ c/e/d/c/|B/d/c/B/ A/c/B/A/|G/B/A/G/ G/F/E/D/:|:
DD BB/A/|A/G/F/G/ DF|GA Bc|d3 B/c/|
de/d/ cd/c/|Bc/B/ AB/c/|dG B/A/G/F/|G3 z||
G/F/G/A/ BA/B/|c/B/A/G/ FD|G/F/G/A/ Bc|d3 B/c/|
de/d/ cd/c/|Bc/B/ AB/c/|dG B/A/G/F/|G4||

